images/TT_white 1.svg

<svg width="272" height="72" viewBox="0 0 272 72" fill="none" xmlns="http://www.w3.org/2000/svg">
<path d="M266.032 51.5365V29.844H243.201V38.9528H256.385V46.3912V57.8342C256.582 57.763 256.782 57.6964 256.975 57.6205C260.561 56.2064 263.579 54.1796 266.032 51.5365Z" fill="#D22027"/>
<path d="M79 9V60H91V27.4424L79 9Z" fill="#F5F5F5"/>
<path d="M6.56152 19.1891H22.0389V59.7402H33.9578V19.1891H49.5062V8.77734H6.56152V19.1891Z" fill="#F5F5F5"/>
<path d="M202.9 26.8335L203.046 40.4473L180.011 8.77734H169.329V59.7402H181.173V41.9775L181.028 28.2162L204.064 59.7402H214.744V8.77734H202.9V26.8335Z" fill="#F5F5F5"/>
<path d="M56.1187 16.1949V19.1891V59.7402H68.0357V19.1891V16.1949V8.77734H56.1187V16.1949Z" fill="#F5F5F5"/>
<path d="M146.295 16.1949V19.1891V59.7402H158.212V19.1891V16.1949V8.77734H146.295V16.1949Z" fill="#F5F5F5"/>
<path d="M245.908 18.6504C248.082 18.6504 250.198 19.0688 252.258 19.9026C254.317 20.7372 256.109 21.9186 257.635 23.4481L264.505 16.6348C261.96 13.9921 259.172 12.0229 256.142 10.7246C253.113 9.42781 249.725 8.7771 245.976 8.7771C240.796 8.7771 236.203 9.85633 232.202 12.0105C228.201 14.1666 225.09 17.1798 222.869 21.0488C220.648 24.9202 219.538 29.3354 219.538 34.2941C219.538 39.3926 220.59 43.8667 222.696 47.7132C224.801 51.5614 227.784 54.5269 231.647 56.6114C235.509 58.6971 240.009 59.7403 245.145 59.7403C247.665 59.7403 250.06 59.4937 252.331 59.0056V48.7913C250.328 49.5546 248.025 49.9367 245.423 49.9367C242.508 49.9367 239.94 49.2883 237.72 47.9912C235.499 46.6928 233.788 44.8619 232.585 42.4979C231.38 40.1346 230.78 37.3994 230.78 34.2945C230.78 29.4752 232.133 25.6623 234.839 22.8577C237.545 20.0536 241.235 18.6504 245.908 18.6504Z" fill="#F5F5F5"/>
<path d="M107 30.7113L89.6634 9H79V13.5707L90.8235 28.0155L98.3675 37.2324L105.911 46.4492H108.232L123.176 28.0895V60H135V9H124.336L107 30.7113Z" fill="#F5F5F5"/>
</svg>

<svg width="272" height="72" fill="none" xmlns="http://www.w3.org/2000/svg"><path d="M266.032 51.536V29.844h-22.831v9.109h13.184v18.881c.197-.071.397-.138.59-.214 3.586-1.414 6.604-3.44 9.057-6.084Z" fill="#D22027"/><path d="M79 9v51h12V27.442L79 9ZM6.562 19.19h15.477v40.55h11.919V19.19h15.548V8.776H6.562V19.19ZM202.9 26.834l.146 13.613-23.035-31.67h-10.682V59.74h11.844V41.977l-.145-13.76 23.036 31.523h10.68V8.777H202.9v18.056ZM56.119 16.195V59.74h11.917V8.777H56.119v7.418ZM146.295 16.195V59.74h11.917V8.777h-11.917v7.418ZM245.908 18.65c2.174 0 4.29.419 6.35 1.253a15.992 15.992 0 0 1 5.377 3.545l6.87-6.813c-2.545-2.643-5.333-4.612-8.363-5.91-3.029-1.297-6.417-1.948-10.166-1.948-5.18 0-9.773 1.08-13.774 3.234-4.001 2.156-7.112 5.169-9.333 9.038-2.221 3.871-3.331 8.286-3.331 13.245 0 5.099 1.052 9.573 3.158 13.42 2.105 3.847 5.088 6.813 8.951 8.897 3.862 2.086 8.362 3.13 13.498 3.13 2.52 0 4.915-.247 7.186-.735V48.79c-2.003.764-4.306 1.146-6.908 1.146-2.915 0-5.483-.649-7.703-1.946-2.221-1.298-3.932-3.13-5.135-5.493-1.205-2.363-1.805-5.099-1.805-8.203 0-4.82 1.353-8.633 4.059-11.437 2.706-2.804 6.396-4.208 11.069-4.208Z" fill="#F5F5F5"/><path d="M107 30.711 89.663 9H79v4.57l11.823 14.445 7.545 9.217 7.543 9.217h2.321l14.944-18.36V60H135V9h-10.664L107 30.711Z" fill="#F5F5F5"/></svg>
